X: 366
T: Op Sa Sa
O: Serbia
S:from recording Ciga Ivon Despotovic -16 Yugoslavian Dances
M: 2/4
L: 1/8
Q: 1/4=192
K: C
|:.G.A.G.A|.G.F.E2  |.G.A.G.A   |.G.G.c2       |\
  .G.A.G.A|.G.F.E2  |.G.A.G.F   |E4            :|
|:G<<c cB |AG EF    |GccB       |AG EF         |\
  G<_B-B2 | GF EF   |[1G_BBB    |G4            :|
  [2 EGGG |E2 (3EFG |:.G2.G2    |GA GF         |\
  E2 G2   |GG c2    |
  .E2 .G2 |GA GF    |E2 (3G,A,B,|[1 C2 (3EFG   :|\
  [2 C4   |
K:Dm
|:DE^FG   |.A2.A2   |.A2.A2     |A4            |\
  GAB2    |.c2 .B2  |.A2 .G2    |A4            |
  GAB2    |.c2 .B2  |.A2 .G2    |F3 G          |\
  .A2 .D2 |.F2 .G2  |.F2 .E2    |D4            :|
|:F2D2    |D4       |F2D2       |A2 GF         |\
  E2 D2   |A2 GF    |E2 D2      |D4            :|



